public/icons/tech-stack/firebase.svg

<svg width="77" height="86" viewBox="0 0 77 86" fill="none" xmlns="http://www.w3.org/2000/svg">
<path d="M7.58124 69.3375L8.09655 68.6117L32.4072 22.0188L32.4587 21.5258L21.7432 1.19078C21.5471 0.818923 21.2401 0.518798 20.8658 0.332865C20.4916 0.146932 20.0689 0.0846063 19.6576 0.154704C19.2464 0.224802 18.8673 0.423774 18.5741 0.723472C18.2809 1.02317 18.0885 1.40842 18.0239 1.82472L7.58124 69.3375Z" fill="#FFC24A"/>
<path d="M7.88437 68.7863L8.27237 68.0207L32.3314 21.9117L21.6432 1.49707C21.467 1.14204 21.1816 0.854274 20.8298 0.676873C20.4781 0.499471 20.0789 0.441989 19.6922 0.513039C19.3054 0.58409 18.9518 0.779847 18.6844 1.07098C18.4169 1.36212 18.2501 1.73296 18.2088 2.12795L7.88437 68.7863Z" fill="#FFA712"/>
<path d="M40.2703 36.9056L48.2485 28.6369L40.2672 13.2601C40.0916 12.9292 39.8304 12.6525 39.5114 12.4597C39.1925 12.2669 38.8277 12.165 38.4561 12.165C38.0844 12.165 37.7196 12.2669 37.4007 12.4597C37.0818 12.6525 36.8205 12.9292 36.6449 13.2601L32.3799 21.4737V22.175L40.2703 36.9056Z" fill="#F4BD62"/>
<path d="M40.1278 36.5689L47.8847 28.5451L40.1278 13.6001C40.0008 13.2766 39.7839 12.9971 39.5033 12.7954C39.2227 12.5936 38.8903 12.4781 38.5461 12.4629C38.202 12.4477 37.8609 12.5334 37.5639 12.7096C37.2669 12.8859 37.0267 13.1451 36.8722 13.4562L32.586 21.8137L32.4587 22.2394L40.1278 36.5689Z" fill="#FFA50E"/>
<path d="M7.58731 69.3405L7.82072 69.1017L8.66644 68.7556L39.7671 37.4507L40.1611 36.3666L32.4042 21.4277L7.58731 69.3405Z" fill="#F6820C"/>
<path d="M41.2645 85.1277L69.4187 69.267L61.3738 19.2534C61.3161 18.9008 61.1634 18.5711 60.9325 18.3005C60.7015 18.0298 60.4011 17.8287 60.0645 17.7193C59.7278 17.6098 59.3677 17.5961 59.0238 17.6798C58.68 17.7635 58.3656 17.9413 58.1152 18.1937L7.58124 69.3375L35.5688 85.1247C36.4389 85.6152 37.4187 85.8727 38.4151 85.8727C39.4115 85.8727 40.3914 85.6152 41.2615 85.1247" fill="#FDE068"/>
<path d="M69.1611 69.1354L61.1828 19.4984C61.1688 19.1612 61.056 18.8357 60.8587 18.5633C60.6615 18.2909 60.3887 18.0837 60.0749 17.9679C59.7611 17.8522 59.4203 17.8331 59.0958 17.9131C58.7712 17.9931 58.4774 18.1686 58.2516 18.4173L7.88437 69.2426L35.5627 84.8613C36.4259 85.3478 37.3979 85.6032 38.3863 85.6032C39.3747 85.6032 40.3467 85.3478 41.2099 84.8613L69.1611 69.1354Z" fill="#FCCA3F"/>
<path d="M41.2645 84.6501C40.3944 85.1406 39.4145 85.3981 38.4181 85.3981C37.4217 85.3981 36.4419 85.1406 35.5718 84.6501L7.81161 69.0987L7.58124 69.3376L35.5688 85.1248C36.4389 85.6153 37.4187 85.8728 38.4151 85.8728C39.4115 85.8728 40.3914 85.6153 41.2615 85.1248L69.4187 69.2671L69.349 68.8384L41.2645 84.6501Z" fill="#EEAB37"/>
</svg>

<svg xmlns="http://www.w3.org/2000/svg" width="77" height="86" fill="none" xmlns:v="https://vecta.io/nano"><path d="M7.581 69.338l.515-.726 24.311-46.593.051-.493L21.743 1.191c-.196-.372-.503-.672-.877-.858a1.97 1.97 0 0 0-1.208-.178 1.98 1.98 0 0 0-1.083.569c-.293.3-.486.685-.55 1.101L7.581 69.338z" fill="#ffc24a"/><path d="M7.884 68.786l.388-.766 24.059-46.109L21.643 1.497a1.83 1.83 0 0 0-.813-.82 1.8 1.8 0 0 0-1.138-.164c-.387.071-.74.267-1.008.558s-.434.662-.476 1.057L7.884 68.786z" fill="#ffa712"/><path d="M40.27 36.906l7.978-8.269-7.981-15.377c-.176-.331-.437-.608-.756-.8a2.04 2.04 0 0 0-2.111 0c-.319.193-.58.47-.756.8l-4.265 8.214v.701l7.89 14.731z" fill="#f4bd62"/><path d="M40.128 36.569l7.757-8.024L40.128 13.6a1.8 1.8 0 0 0-.624-.805c-.281-.202-.613-.317-.957-.333a1.77 1.77 0 0 0-.982.247c-.297.176-.537.435-.692.747l-4.286 8.358-.127.426 7.669 14.33z" fill="#ffa50e"/><path d="M7.587 69.341l.233-.239.846-.346 31.101-31.305.394-1.084-7.757-14.939L7.587 69.341z" fill="#f6820c"/><path d="M41.265 85.128l28.154-15.861-8.045-50.014c-.058-.353-.21-.682-.441-.953s-.531-.472-.868-.581-.697-.123-1.041-.04a1.92 1.92 0 0 0-.909.514L7.581 69.338l27.988 15.787c.87.49 1.85.748 2.846.748s1.976-.257 2.846-.748" fill="#fde068"/><path d="M69.161 69.135l-7.978-49.637c-.014-.337-.127-.663-.324-.935a1.69 1.69 0 0 0-.784-.595 1.67 1.67 0 0 0-.979-.055c-.325.08-.618.256-.844.504L7.884 69.243l27.678 15.619a5.75 5.75 0 0 0 5.647 0l27.951-15.726z" fill="#fcca3f"/><path d="M41.265 84.65c-.87.491-1.85.748-2.846.748s-1.976-.257-2.846-.748L7.812 69.099l-.23.239 27.988 15.787c.87.491 1.85.748 2.846.748s1.976-.257 2.846-.748l28.157-15.858-.07-.429L41.265 84.65z" fill="#eeab37"/></svg>
